X:1
T: Delores's Fine Day
C:Gordy Euler
R:Reel
Q: 232
K:G
M:4/4
L:1/8
|:BG cG B2 GA|Bd ed BA GA|BG cG B3G|FD AD BD cD|
BG cG B2 GA|Bd ed Bd ef|gd e=f ec dc|Bd Ad G4:|
|:fa ba gd Bd|cA dA eA gA|fa ba gd Bd|cE AB cd eg|
fa ba gd Bd|cd Bd ec fd|gd e=f ed cd|Bd Ad G4:|
